Newaita/actions/24/gnumeric-format-valign-center.svg

<svg height="24" viewBox="0 0 24 24" width="24" xmlns="http://www.w3.org/2000/svg"><g fill="#424242"><path d="m2.234375 14.066406h19.347656c.136719 0 .25-.109375.25-.246094v-.484374c0-.136719-.113281-.25-.25-.25h-19.347656c-.140625 0-.25.113281-.25.25v.484374c0 .136719.109375.246094.25.246094zm0 0"/><path d="m2.234375 11.089844h19.347656c.136719 0 .25-.109375.25-.246094v-.484375c0-.136719-.113281-.25-.25-.25h-19.347656c-.140625 0-.25.113281-.25.25v.484375c0 .136719.109375.246094.25.246094zm0 0"/><path d="m12.898438 20.03125h-1.984376v1.476562c0 .277344.222657.496094.496094.496094h.992188c.277344 0 .496094-.21875.496094-.496094zm0 0"/><path d="m8.433594 20.03125h6.945312l-3.472656-4.960938zm0 0"/><path d="m12.898438 4.15625h-1.984376v-1.476562c0-.273438.222657-.496094.496094-.496094h.992188c.277344 0 .496094.222656.496094.496094zm0 0"/><path d="m8.433594 4.15625h6.945312l-3.472656 4.960938zm0 0"/></g></svg>

<?xml version="1.0" encoding="UTF-8"?>
<svg xmlns="http://www.w3.org/2000/svg" xmlns:xlink="http://www.w3.org/1999/xlink" width="24px" height="24px" viewBox="0 0 24 24" version="1.1">
<g id="surface1">
<path style=" stroke:none;fill-rule:nonzero;fill:rgb(25.882354%,25.882354%,25.882354%);fill-opacity:1;" d="M 2.234375 14.066406 L 21.582031 14.066406 C 21.71875 14.066406 21.832031 13.957031 21.832031 13.820312 L 21.832031 13.335938 C 21.832031 13.199219 21.71875 13.085938 21.582031 13.085938 L 2.234375 13.085938 C 2.09375 13.085938 1.984375 13.199219 1.984375 13.335938 L 1.984375 13.820312 C 1.984375 13.957031 2.09375 14.066406 2.234375 14.066406 Z M 2.234375 14.066406 "/>
<path style=" stroke:none;fill-rule:nonzero;fill:rgb(25.882354%,25.882354%,25.882354%);fill-opacity:1;" d="M 2.234375 11.089844 L 21.582031 11.089844 C 21.71875 11.089844 21.832031 10.980469 21.832031 10.84375 L 21.832031 10.359375 C 21.832031 10.222656 21.71875 10.109375 21.582031 10.109375 L 2.234375 10.109375 C 2.09375 10.109375 1.984375 10.222656 1.984375 10.359375 L 1.984375 10.84375 C 1.984375 10.980469 2.09375 11.089844 2.234375 11.089844 Z M 2.234375 11.089844 "/>
<path style=" stroke:none;fill-rule:nonzero;fill:rgb(25.882354%,25.882354%,25.882354%);fill-opacity:1;" d="M 12.898438 20.03125 L 10.914062 20.03125 L 10.914062 21.507812 C 10.914062 21.785156 11.136719 22.003906 11.410156 22.003906 L 12.402344 22.003906 C 12.679688 22.003906 12.898438 21.785156 12.898438 21.507812 Z M 12.898438 20.03125 "/>
<path style=" stroke:none;fill-rule:nonzero;fill:rgb(25.882354%,25.882354%,25.882354%);fill-opacity:1;" d="M 8.433594 20.03125 L 15.378906 20.03125 L 11.90625 15.070312 Z M 8.433594 20.03125 "/>
<path style=" stroke:none;fill-rule:nonzero;fill:rgb(25.882354%,25.882354%,25.882354%);fill-opacity:1;" d="M 12.898438 4.15625 L 10.914062 4.15625 L 10.914062 2.679688 C 10.914062 2.40625 11.136719 2.183594 11.410156 2.183594 L 12.402344 2.183594 C 12.679688 2.183594 12.898438 2.40625 12.898438 2.679688 Z M 12.898438 4.15625 "/>
<path style=" stroke:none;fill-rule:nonzero;fill:rgb(25.882354%,25.882354%,25.882354%);fill-opacity:1;" d="M 8.433594 4.15625 L 15.378906 4.15625 L 11.90625 9.117188 Z M 8.433594 4.15625 "/>
</g>
</svg>
